static/assets/images/tokens/cmeth.svg

<svg width="256" height="256" viewBox="0 0 256 256" fill="none" xmlns="http://www.w3.org/2000/svg">
<path d="M256 128C256 57.3075 198.692 0 128 0C57.3075 0 0 57.3075 0 128C0 198.692 57.3075 256 128 256C198.692 256 256 198.692 256 128Z" fill="white"/>
<path d="M128.128 26L161.189 72.5714L128.128 84.2958L95.0721 72.5714L128.128 26Z" fill="#D82292"/>
<path d="M95.3719 137.657H161.06V72.5806L128.216 84.2682L95.3719 72.576V137.657Z" fill="#DE46AB"/>
<path d="M161.069 72.576V137.657L128.23 125.836V84.2682L161.069 72.576Z" fill="#FFA4CB"/>
<path d="M128.211 183.93L95.3719 137.657L128.216 126.015L161.055 137.661L128.216 183.934L128.211 183.93ZM133.262 229L139.073 191.77L157.545 194.125L166.248 210.509L133.262 229Z" fill="#D82292"/>
<path d="M193.198 171.48L166.207 152.861L139.096 191.798L157.462 194.116L166.087 210.417L193.198 171.48Z" fill="#FFA4CB"/>
<path d="M139.115 191.803L166.225 152.861L174.804 169.244L157.485 194.116L139.115 191.803Z" fill="#DE46AB"/>
<path d="M199 134.489L193.225 171.475L174.873 169.134L166.225 152.861L199 134.489Z" fill="#D82292"/>
<path d="M119.738 229L113.927 191.77L95.4549 194.125L86.7516 210.514L119.738 229Z" fill="#FFA4CB"/>
<path d="M59.7653 171.48L86.7562 152.861L113.867 191.803L95.5011 194.116L86.8761 210.422L59.7607 171.48H59.7653Z" fill="#D82292"/>
<path d="M113.885 191.803L86.7701 152.861L78.2005 169.244L95.5149 194.116L113.885 191.803Z" fill="#DE46AB"/>
<path d="M54 134.489L59.7745 171.48L78.1267 169.139L86.7701 152.861L54 134.489Z" fill="#FFA4CB"/>
</svg>

<svg xmlns="http://www.w3.org/2000/svg" fill="none" viewBox="0 0 256 256"><path fill="#fff" d="M256 128C256 57.308 198.692 0 128 0S0 57.308 0 128s57.308 128 128 128 128-57.308 128-128"/><path fill="#D82292" d="m128.128 26 33.061 46.571-33.061 11.725L95.072 72.57z"/><path fill="#DE46AB" d="M95.372 137.657h65.688V72.581l-32.844 11.687-32.844-11.692z"/><path fill="#FFA4CB" d="M161.069 72.576v65.081l-32.839-11.821V84.268z"/><path fill="#D82292" d="m128.211 183.93-32.84-46.273 32.845-11.642 32.839 11.646-32.839 46.273zm5.051 45.07 5.811-37.23 18.472 2.355 8.703 16.384z"/><path fill="#FFA4CB" d="m193.198 171.48-26.991-18.619-27.111 38.937 18.366 2.318 8.625 16.301z"/><path fill="#DE46AB" d="m139.115 191.803 27.11-38.942 8.579 16.383-17.319 24.872z"/><path fill="#D82292" d="m199 134.489-5.775 36.986-18.352-2.341-8.648-16.273z"/><path fill="#FFA4CB" d="m119.738 229-5.811-37.23-18.472 2.355-8.703 16.389z"/><path fill="#D82292" d="m59.765 171.48 26.991-18.619 27.111 38.942-18.366 2.313-8.625 16.306-27.115-38.942z"/><path fill="#DE46AB" d="M113.885 191.803 86.77 152.861l-8.57 16.383 17.315 24.872z"/><path fill="#FFA4CB" d="m54 134.489 5.775 36.991 18.352-2.341 8.643-16.278z"/></svg>
